X:1
T:Miami, 11.11.11.11 D
T:Miami, 11.11.11.11 D
T:Charles Hutchinson Gabriel, 1910
T:Public Domain Courtesy of the Cyber Hymnal™
C:Charles Hutchinson Gabriel, 1910
Z:Public Domain
Z:Courtesy of the Cyber Hymnal™
%%score ( 1 2 ) ( 3 4 )
L:1/8
Q:1/4=95
M:4/4
K:G
V:1 treble 
V:2 treble 
V:3 bass 
V:4 bass 
V:1
 [B,D]>[^A,^C] [B,D]>[=CE] [B,D]2 [DB]2 | [EB]>[EA] [EA]>[EB] [Ec]4 | %2
 [CF]>[C^E] [CF]>[DG] [DA]>[DF] [C=E]>D | [DG]2 [DA]2 [DB]4 | %4
 [B,D]>[^A,^C] [B,D]>[=CE] [B,D]2 [DB]2 | [EB]>[EA] [EA]>[EB] [Ec]4 | %6
 [CF]>[C^E] [CF]>[DG] [DA]>[DA] [Dc]>[Dc] | [DB]2 [CA]2 [B,G]4 | [Gd]>[GB] [DA]>[DG] [GB]2 [GB]2 | %9
 [Gd]>[DG] [DF]>[DG] [Fc]4 | [Fc]>[FA] [DF]>[FA] [Fd]>[FA] [^E^G]>[FA] | [GB]2 [Gc]2 [GB]4 | %12
 [Gd]>[GB] [DA]>[DG] [DB]2 [=FB]2 | [Ec]>[CE] [C^D]>[CE] A2 G2 | %14
 [=CF]>[C^E] [CF]>[DG] [DA]>[DB] [Dc]>[Dc] | [DB]2 [CA]2 [B,G]4 |] %16
V:2
 x8 | x8 | x15/2 D/ | x8 | x8 | x8 | x8 | x8 | x8 | x8 | x8 | x8 | x8 | x4 ^C4 | x8 | x8 |] %16
V:3
 [G,,G,]>[G,,G,] [G,,G,]>[G,,G,] [G,,G,]2 [G,,G,]2 | [C,G,]>[C,G,] [C,G,]>[B,,^G,] [A,,A,]4 | %2
 [D,A,]>[D,^G,] [D,A,]>[D,B,] [D,C]>[D,A,] [D,=G,]>[C,F,] | [B,,G,]2 [D,F,]2 G,4 | %4
 [G,,G,]>[G,,G,] [G,,G,]>[G,,G,] [G,,G,]2 [G,,G,]2 | [C,G,]>[C,G,] [C,G,]>[B,,^G,] [A,,A,]4 | %6
 [D,A,]>[D,^G,] [D,A,]>[D,B,] [D,C]>[D,C] [D,A,]>[D,A,] | G,2 [D,F,]2 [G,,G,]4 | %8
 [G,B,]>[G,D] [G,C]>[G,B,] [G,D]2 [G,D]2 | [G,B,]>[G,B,] [A,C]>[G,B,] [D,A,]4 | %10
 [D,A,]>[D,D] [D,A,]>[D,D] [D,A,]>[D,D] [D,D]>[D,D] | [G,D]2 [G,E]2 [G,D]4 | %12
 [G,B,]>[G,D] [G,C]>[G,B,] G,2 G,2 | [C,G,]>[C,G,] [C,G,]>[C,G,] G,2 A,2 | %14
 [D,A,]>[D,^G,] [D,A,]>[D,B,] [D,F,]>[D,=G,] [D,A,]>[F,A,] | G,2 [D,F,]2 [G,,G,]4 |] %16
V:4
 x8 | x8 | x8 | x4 G,4 | x8 | x8 | x8 | G,2 x6 | x8 | x8 | x8 | x8 | x4 G,2 G,2 | x4 A,,4 | x8 | %15
 G,2 x6 |] %16

